X:3433
T:La Reine des bals
O:england
M:2/4
L:1/16
K:G
D2G2 B3A|GFGE D4|cccA BBBG|~A2GF ~E2Dd|\
DdGD ~B3A|GFGE D4|cccA BBBG|~A2GF G4:|
A2~F2 D2FA|~B2~G2 D4|c2Ac ~B2GB|AGFE ~E2D2|\
A2~F2 D2FA|~B2~G2 D4|c2Ac ~B2GB|AFEF G4:|


